X:1
T:Theme From "Rosamunde"
M:C|
K:C
L:1/4
Q:1/2=100
  e4 | (dcde) | c2g2 | d2g2 | e4 | (fefc') | c2e2 | g2d2 |
  e4 | (^fefa) | g4 | (fgaf) | (efge) | (defd) | c4 |]
